src/16/actions/whitebalance.svg

<svg xmlns="http://www.w3.org/2000/svg" width="16" height="16" viewBox="0 0 16 16">
 <defs>
  <style id="current-color-scheme" type="text/css">
   .ColorScheme-Text { color:#5d656b; } .ColorScheme-Highlight { color:#5294e2; }
  </style>
 </defs>
 <path style="fill:currentColor" class="ColorScheme-Text" d="M 7.5 0 L 7.5 1.8125 L 8.5 1.8125 L 8.5 0 L 7.5 0 z M 2.6875 1.96875 L 1.96875 2.6875 L 3.25 4 L 3.96875 3.25 L 2.6875 1.96875 z M 13.310547 1.96875 L 12.03125 3.25 L 12.75 4 L 14.03125 2.6875 L 13.310547 1.96875 z M 8 3 C 5.2386 3 3 5.2386 3 8 C 3 10.761 5.2386 13 8 13 C 10.761 13 13 10.761 13 8 C 13 5.2386 10.761 3 8 3 z M 8 5 A 3 3 0 0 1 11 8 A 3 3 0 0 1 8 11 A 3 3 0 0 1 5 8 A 3 3 0 0 1 8 5 z M 0 7.5 L 0 8.5 L 1.8125 8.5 L 1.8125 7.5 L 0 7.5 z M 14.1875 7.5 L 14.1875 8.5 L 16 8.5 L 16 7.5 L 14.1875 7.5 z M 3.25 12.03125 L 1.96875 13.3125 L 2.6875 14.03125 L 3.96875 12.75 L 3.25 12.03125 z M 12.75 12.03125 L 12.03125 12.75 L 13.310547 14.03125 L 14.03125 13.3125 L 12.75 12.03125 z M 7.5 14.1875 L 7.5 16 L 8.5 16 L 8.5 14.1875 L 7.5 14.1875 z"/>
</svg>

<svg xmlns="http://www.w3.org/2000/svg" width="16" height="16"><defs><style id="current-color-scheme" type="text/css"></style></defs><path d="M7.5 0v1.813h1V0h-1zM2.687 1.969l-.718.718L3.25 4l.719-.75-1.281-1.281zm10.624 0L12.03 3.25l.719.75 1.281-1.313-.72-.718zM8 3a5 5 0 1 0 0 10A5 5 0 0 0 8 3zm0 2a3 3 0 0 1 3 3 3 3 0 0 1-3 3 3 3 0 0 1-3-3 3 3 0 0 1 3-3zM0 7.5v1h1.813v-1H0zm14.188 0v1H16v-1h-1.813zM3.25 12.031l-1.281 1.281.718.72L3.97 12.75l-.719-.719zm9.5 0l-.719.719 1.28 1.281.72-.719-1.281-1.28zM7.5 14.187V16h1v-1.813h-1z" fill="currentColor" color="#5d656b"/></svg>
